!! 00000] TT[00
!! NN
!!!OTL: Fanshen duokui gongchan dang
!!!ARE: Asia, China,ÿJiangsu, Xinghua
!! Ethnic Group: Han
!! III, 425
!!!SCT: C0317
!!!YEM: Copyright 1995, estate of Helmut Schaffrath.
**kern
*ICvox
*Ivox
*M2/4
*k[f#c#]
*D:
{4a
4b
=1
8dd
[4.b
=2
2b]}
=3
{4a
8b
8dd
=4
8a
8b
8a
8f#
=5
8f#
8e
4d}
=6
{8a
8a
8b
8b
=7
4dd
4a
=8
8f#
8f#
4e
=9
2d}
=10
{8.dd
16dd
8dd
8f#
=11
4a
8a
8b}
=12
{8.dd
16dd
8dd
8f#
=13
2a}
=14
{8.a
16b
4dd
=15
8ee
16ff#
16ee
8dd
8a
=16
8b
8dd
16b
16a
8f#
=17
2a}
=18
{8a
8f#
8a
8b
=19
2dd}
=20
{8a
8b
8f#
8e
=21
2d}
=22
{8.e
16f#
8a
8a
=23
8dd
8b
8a
8e
=24
8f#
8a
8f#
8e
=25
2d}
==
!!!AGN: Shange, Yangtian ge, geligesanduo. Nongtian laodong shi chang.
!!    Xin minge
!! Enthaelt einige Elemente der Xiaodiao.
!!    Man singt bei der Feldarbeit mit Vorsaenger.
!!!ONB: ESAC (Essen Associative Code) Database: CHINA
!!!AMT: simple duple
!!!AIN: vox
!!!EED: Helmut Schaffrath
!!!EEV: 1.0
*-
!!!ONB: Tied note syntax fixed by Craig Sapp, 2004/05/03/
